modules/themify-icons/icons/harddrives.svg

<?xml version="1.0" encoding="utf-8"?>
<!-- Generated by IcoMoon.io -->
<!DOCTYPE svg PUBLIC "-//W3C//DTD SVG 1.1//EN" "http://www.w3.org/Graphics/SVG/1.1/DTD/svg11.dtd">
<svg version="1.1" xmlns="http://www.w3.org/2000/svg" xmlns:xlink="http://www.w3.org/1999/xlink" width="17" height="17" viewBox="0 0 17 17">
<g>
</g>
	<path d="M13.5 12.5c-0.827 0-1.5 0.673-1.5 1.5s0.673 1.5 1.5 1.5 1.5-0.673 1.5-1.5-0.673-1.5-1.5-1.5zM13.5 14.5c-0.275 0-0.5-0.225-0.5-0.5s0.225-0.5 0.5-0.5 0.5 0.225 0.5 0.5-0.225 0.5-0.5 0.5zM17 3.15l-2.923-3.15h-11.151l-2.926 3.087v6.433h0.936l-0.936 1.172v6.308h17v-6.26l-1.046-1.22h1.046v-6.37zM3.355 1h10.286l1.854 2h-14.035l1.895-2zM1 16v-4h15v4h-15zM15.906 11h-14.873l1.181-1.48h12.424l1.268 1.48zM1 8.52v-4.52h15v4.52h-15zM13.5 5c-0.827 0-1.5 0.673-1.5 1.5 0 0.826 0.673 1.499 1.5 1.499s1.5-0.673 1.5-1.499c0-0.827-0.673-1.5-1.5-1.5zM13.5 6.999c-0.275 0-0.5-0.224-0.5-0.499s0.225-0.5 0.5-0.5 0.5 0.225 0.5 0.5-0.225 0.499-0.5 0.499z" fill="#000000" />
</svg>

<svg xmlns="http://www.w3.org/2000/svg" width="17" height="17" viewBox="0 0 17 17"><path d="M13.5 12.5c-.827 0-1.5.673-1.5 1.5s.673 1.5 1.5 1.5S15 14.827 15 14s-.673-1.5-1.5-1.5zm0 2c-.275 0-.5-.225-.5-.5s.225-.5.5-.5.5.225.5.5-.225.5-.5.5zM17 3.15L14.077 0H2.926L0 3.087V9.52h.936L0 10.692V17h17v-6.26l-1.046-1.22H17V3.15zM3.355 1h10.286l1.854 2H1.46l1.895-2zM1 16v-4h15v4H1zm14.906-5H1.033l1.181-1.48h12.424L15.906 11zM1 8.52V4h15v4.52H1zM13.5 5c-.827 0-1.5.673-1.5 1.5 0 .826.673 1.499 1.5 1.499S15 7.326 15 6.5c0-.827-.673-1.5-1.5-1.5zm0 1.999a.5.5 0 0 1 0-.999.5.5 0 0 1 0 .999z"/></svg>
